the-plus-addons-for-block-editor/assets/images/social-review/style-2.svg

<svg xmlns="http://www.w3.org/2000/svg" width="1000" height="700" fill="none"><path fill="#FCFCFF" d="M0 0h1000v700H0z"/><rect width="726" height="464" x="136.5" y="118.5" fill="#F2F2F2" stroke="#D5D5D5" rx="29.5"/><path stroke="#D5D5D5" stroke-width="5" d="M196 355h606M196 385h606.442M196 415h606.442M196 445h606M337 475h324"/><path stroke="#888" stroke-width="10" d="M339 275h320"/><g clip-path="url(#a)"><path fill="#D5D5D5" d="m426.729 308.962 8.568 1.264c.71.101 1.306.602 1.533 1.288a1.917 1.917 0 0 1-.472 1.956l-6.212 6.093 1.466 8.741a1.911 1.911 0 0 1-2.778 2.004l-7.656-4.085-7.65 4.085a1.921 1.921 0 0 1-2.015-.137 1.899 1.899 0 0 1-.763-1.867l1.466-8.741-6.214-6.093a1.917 1.917 0 0 1-.47-1.956 1.896 1.896 0 0 1 1.534-1.288l8.561-1.264 3.84-7.89a1.903 1.903 0 0 1 3.428 0l3.834 7.89Z"/></g><g clip-path="url(#b)"><path fill="#D5D5D5" d="m465.494 308.962 8.568 1.264a1.902 1.902 0 0 1 1.532 1.288 1.915 1.915 0 0 1-.471 1.956l-6.213 6.093 1.467 8.741a1.904 1.904 0 0 1-.769 1.867 1.913 1.913 0 0 1-2.01.137l-7.655-4.085-7.65 4.085a1.923 1.923 0 0 1-2.016-.137 1.9 1.9 0 0 1-.763-1.867l1.467-8.741-6.214-6.093a1.917 1.917 0 0 1-.471-1.956 1.897 1.897 0 0 1 1.535-1.288l8.561-1.264 3.839-7.89a1.901 1.901 0 0 1 1.712-1.074c.733 0 1.401.417 1.717 1.074l3.834 7.89Z"/></g><g clip-path="url(#c)"><path fill="#D5D5D5" d="m504.258 308.962 8.569 1.264a1.904 1.904 0 0 1 1.532 1.288 1.917 1.917 0 0 1-.471 1.956l-6.213 6.093 1.467 8.741a1.904 1.904 0 0 1-.769 1.867 1.913 1.913 0 0 1-2.01.137l-7.656-4.085-7.649 4.085a1.923 1.923 0 0 1-2.016-.137 1.9 1.9 0 0 1-.763-1.867l1.467-8.741-6.214-6.093a1.917 1.917 0 0 1-.471-1.956 1.896 1.896 0 0 1 1.534-1.288l8.561-1.264 3.84-7.89a1.9 1.9 0 0 1 1.711-1.074c.734 0 1.402.417 1.718 1.074l3.833 7.89Z"/></g><g clip-path="url(#d)"><path fill="#D5D5D5" d="m543.023 308.962 8.568 1.264c.71.101 1.306.602 1.532 1.288a1.915 1.915 0 0 1-.471 1.956l-6.212 6.093 1.466 8.741a1.911 1.911 0 0 1-2.778 2.004l-7.656-4.085-7.65 4.085a1.921 1.921 0 0 1-2.015-.137 1.897 1.897 0 0 1-.763-1.867l1.466-8.741-6.214-6.093a1.917 1.917 0 0 1-.47-1.956 1.896 1.896 0 0 1 1.534-1.288l8.561-1.264 3.84-7.89a1.903 1.903 0 0 1 3.428 0l3.834 7.89Z"/></g><g clip-path="url(#e)"><path fill="#D5D5D5" d="m581.788 308.962 8.568 1.264a1.902 1.902 0 0 1 1.532 1.288 1.915 1.915 0 0 1-.471 1.956l-6.213 6.093 1.467 8.741a1.904 1.904 0 0 1-.769 1.867 1.913 1.913 0 0 1-2.01.137l-7.655-4.085-7.65 4.085a1.923 1.923 0 0 1-2.016-.137 1.9 1.9 0 0 1-.763-1.867l1.467-8.741-6.214-6.093a1.917 1.917 0 0 1-.471-1.956 1.897 1.897 0 0 1 1.535-1.288l8.56-1.264 3.84-7.89a1.901 1.901 0 0 1 1.712-1.074c.733 0 1.401.417 1.717 1.074l3.834 7.89Z"/></g><path fill="#D5D5D5" d="M449 200.5c0 27.89 22.61 50.5 50.5 50.5s50.5-22.61 50.5-50.5-22.61-50.5-50.5-50.5-50.5 22.61-50.5 50.5Z"/><path fill="#F2F2F2" d="M474.803 225.197v-5.989c0-6.59 10.782-11.982 23.96-11.982s23.96 5.392 23.96 11.982v5.989h-47.92Zm11.978-35.938a11.978 11.978 0 0 1 23.73-2.34 11.986 11.986 0 0 1-5.093 12.298 11.974 11.974 0 0 1-15.127-1.488 11.985 11.985 0 0 1-3.51-8.47Z"/><path stroke="#D5D5D5" stroke-width="5" d="M471 525h127.907"/><path fill="#D5D5D5" d="M399 525c0 14.359 11.641 26 26 26s26-11.641 26-26-11.641-26-26-26-26 11.641-26 26Z"/><defs><clipPath id="a"><path fill="#fff" d="M404 300h34.344v30.528H404z"/></clipPath><clipPath id="b"><path fill="#fff" d="M442.765 300h34.344v30.528h-34.344z"/></clipPath><clipPath id="c"><path fill="#fff" d="M481.529 300h34.344v30.528h-34.344z"/></clipPath><clipPath id="d"><path fill="#fff" d="M520.294 300h34.344v30.528h-34.344z"/></clipPath><clipPath id="e"><path fill="#fff" d="M559.059 300h34.344v30.528h-34.344z"/></clipPath></defs></svg>

<svg width="1000" height="700" viewBox="0 0 1000 700" fill="none" xmlns="http://www.w3.org/2000/svg">
<rect width="1000" height="700" fill="#FCFCFF"/>
<rect x="136.5" y="118.5" width="726" height="464" rx="29.5" fill="#F2F2F2" stroke="#D5D5D5"/>
<path d="M196 355H802" stroke="#D5D5D5" stroke-width="5"/>
<path d="M196 385H802.442" stroke="#D5D5D5" stroke-width="5"/>
<path d="M196 415H802.442" stroke="#D5D5D5" stroke-width="5"/>
<path d="M196 445H802" stroke="#D5D5D5" stroke-width="5"/>
<path d="M337 475H661" stroke="#D5D5D5" stroke-width="5"/>
<path d="M339 275H659" stroke="#888888" stroke-width="10"/>
<g clip-path="url(#clip0_15_103)">
<path d="M426.729 308.962L435.297 310.226C436.007 310.327 436.603 310.828 436.83 311.514C437.056 312.206 436.871 312.957 436.358 313.47L430.146 319.563L431.612 328.304C431.732 329.02 431.439 329.747 430.843 330.171C430.253 330.594 429.472 330.648 428.834 330.308L421.178 326.223L413.528 330.308C412.884 330.648 412.103 330.594 411.513 330.171C410.923 329.747 410.624 329.02 410.75 328.304L412.216 319.563L406.002 313.47C405.489 312.957 405.306 312.206 405.532 311.514C405.757 310.828 406.351 310.327 407.066 310.226L415.627 308.962L419.467 301.072C419.783 300.415 420.451 299.998 421.178 299.998C421.911 299.998 422.579 300.415 422.895 301.072L426.729 308.962Z" fill="#D5D5D5"/>
</g>
<g clip-path="url(#clip1_15_103)">
<path d="M465.494 308.962L474.062 310.226C474.771 310.327 475.368 310.828 475.594 311.514C475.821 312.206 475.636 312.957 475.123 313.47L468.91 319.563L470.377 328.304C470.496 329.02 470.204 329.747 469.608 330.171C469.017 330.594 468.236 330.648 467.598 330.308L459.943 326.223L452.293 330.308C451.649 330.648 450.868 330.594 450.277 330.171C449.687 329.747 449.389 329.02 449.514 328.304L450.981 319.563L444.767 313.47C444.253 312.957 444.071 312.206 444.296 311.514C444.521 310.828 445.116 310.327 445.831 310.226L454.392 308.962L458.231 301.072C458.547 300.415 459.215 299.998 459.943 299.998C460.676 299.998 461.344 300.415 461.66 301.072L465.494 308.962Z" fill="#D5D5D5"/>
</g>
<g clip-path="url(#clip2_15_103)">
<path d="M504.258 308.962L512.827 310.226C513.536 310.327 514.132 310.828 514.359 311.514C514.585 312.206 514.401 312.957 513.888 313.47L507.675 319.563L509.142 328.304C509.261 329.02 508.969 329.747 508.373 330.171C507.782 330.594 507.001 330.648 506.363 330.308L498.707 326.223L491.058 330.308C490.414 330.648 489.632 330.594 489.042 330.171C488.452 329.747 488.154 329.02 488.279 328.304L489.746 319.563L483.532 313.47C483.018 312.957 482.836 312.206 483.061 311.514C483.286 310.828 483.88 310.327 484.595 310.226L493.156 308.962L496.996 301.072C497.312 300.415 497.98 299.998 498.707 299.998C499.441 299.998 500.109 300.415 500.425 301.072L504.258 308.962Z" fill="#D5D5D5"/>
</g>
<g clip-path="url(#clip3_15_103)">
<path d="M543.023 308.962L551.591 310.226C552.301 310.327 552.897 310.828 553.123 311.514C553.35 312.206 553.165 312.957 552.652 313.47L546.44 319.563L547.906 328.304C548.026 329.02 547.733 329.747 547.137 330.171C546.547 330.594 545.766 330.648 545.128 330.308L537.472 326.223L529.822 330.308C529.178 330.648 528.397 330.594 527.807 330.171C527.216 329.747 526.918 329.02 527.044 328.304L528.51 319.563L522.296 313.47C521.783 312.957 521.6 312.206 521.826 311.514C522.051 310.828 522.645 310.327 523.36 310.226L531.921 308.962L535.761 301.072C536.077 300.415 536.745 299.998 537.472 299.998C538.205 299.998 538.873 300.415 539.189 301.072L543.023 308.962Z" fill="#D5D5D5"/>
</g>
<g clip-path="url(#clip4_15_103)">
<path d="M581.788 308.962L590.356 310.226C591.065 310.327 591.662 310.828 591.888 311.514C592.115 312.206 591.93 312.957 591.417 313.47L585.204 319.563L586.671 328.304C586.79 329.02 586.498 329.747 585.902 330.171C585.311 330.594 584.53 330.648 583.892 330.308L576.237 326.223L568.587 330.308C567.943 330.648 567.162 330.594 566.571 330.171C565.981 329.747 565.683 329.02 565.808 328.304L567.275 319.563L561.061 313.47C560.547 312.957 560.365 312.206 560.59 311.514C560.815 310.828 561.41 310.327 562.125 310.226L570.685 308.962L574.525 301.072C574.841 300.415 575.509 299.998 576.237 299.998C576.97 299.998 577.638 300.415 577.954 301.072L581.788 308.962Z" fill="#D5D5D5"/>
</g>
<path d="M449 200.5C449 228.39 471.61 251 499.5 251C527.39 251 550 228.39 550 200.5C550 172.61 527.39 150 499.5 150C471.61 150 449 172.61 449 200.5Z" fill="#D5D5D5"/>
<path d="M474.803 225.197V219.208C474.803 212.618 485.585 207.226 498.763 207.226C511.941 207.226 522.723 212.618 522.723 219.208V225.197H474.803ZM486.781 189.259C486.781 186.889 487.483 184.573 488.8 182.603C490.116 180.633 491.986 179.097 494.175 178.19C496.364 177.283 498.773 177.045 501.097 177.507C503.421 177.969 505.556 179.11 507.231 180.785C508.907 182.46 510.048 184.595 510.511 186.919C510.973 189.242 510.736 191.651 509.83 193.84C508.923 196.03 507.388 197.901 505.418 199.217C503.448 200.534 501.132 201.237 498.763 201.237C495.586 201.237 492.538 199.976 490.291 197.729C488.045 195.483 486.782 192.436 486.781 189.259Z" fill="#F2F2F2"/>
<path d="M471 525H598.907" stroke="#D5D5D5" stroke-width="5"/>
<path d="M399 525C399 539.359 410.641 551 425 551C439.359 551 451 539.359 451 525C451 510.641 439.359 499 425 499C410.641 499 399 510.641 399 525Z" fill="#D5D5D5"/>
<defs>
<clipPath id="clip0_15_103">
<rect width="34.3439" height="30.528" fill="white" transform="translate(404 300)"/>
</clipPath>
<clipPath id="clip1_15_103">
<rect width="34.3439" height="30.528" fill="white" transform="translate(442.765 300)"/>
</clipPath>
<clipPath id="clip2_15_103">
<rect width="34.3439" height="30.528" fill="white" transform="translate(481.529 300)"/>
</clipPath>
<clipPath id="clip3_15_103">
<rect width="34.3439" height="30.528" fill="white" transform="translate(520.294 300)"/>
</clipPath>
<clipPath id="clip4_15_103">
<rect width="34.3439" height="30.528" fill="white" transform="translate(559.059 300)"/>
</clipPath>
</defs>
</svg>
